!!!COM:	la Rue, Pierre de
!!!CDT:	~1452///-1518/11/20
!!!OPR:	Missa Sine nomine I
!!!ONM:	4
!!!OTL:	Sanctus
!!!AGN:	Mass; Sanctus
!!!SCT:	Rue1028d
!!!SCA:	Rue1028d
!!!voices:	4
**kern	**kern	**kern	**kern
*staff4	*staff3	*staff2	*staff1
*Ivox	*Ivox	*Ivox	*Ivox
*I"Bassus	*I"Tenor	*I"Contra	*I"Discantus
*I'B	*I'T	*I'C	*I'D
*>[A,B,C,D,E,C]	*>[A,B,C,D,E,C]	*>[A,B,C,D,E,C]	*>[A,B,C,D,E,C]
*>A	*>A	*>A	*>A
*clefF4	*clefGv2	*clefGv2	*clefG2
*k[b-]	*k[b-]	*k[b-]	*k[b-]
*M2/1	*M2/1	*M2/1	*M2/1
*met(C|)	*met(C|)	*met(C|)	*met(C|)
!!section: Sanctus
!!!OMD: Sanctus
=1-	=1-	=1-	=1-
0r	0r	0G	0r
=2	=2	=2	=2
0r	0r	1B-	0g
.	.	1c	.
=3	=3	=3	=3
0r	0r	1d	1b-
.	.	1e-i	1cc
=4	=4	=4	=4
0G	0G	1d	0dd
.	.	2r	.
.	.	[2d\	.
=5	=5	=5	=5
1G	1B-	4d\]	1r
.	.	8e\L	.
.	.	8f\J	.
.	.	1g	.
1A	1c	.	1cc
.	.	2f#i\	.
=6	=6	=6	=6
1.G	[0d	1.g	1.b-
4F\	.	4f\	4a/
4E\	.	4e\	4g/
=7	=7	=7	=7
1D	0d]	1f	1a
1D	.	1f	1b-
=8	=8	=8	=8
0C	1.e-i	0g	0cc
.	2e-i\	.	.
=9	=9	=9	=9
1r	1d	0f	1b-
1F	1c	.	1a
=10	=10	=10	=10
0G	0B-	0d	2b-\
.	.	.	1g
.	.	.	4f/
.	.	.	4e/
=11	=11	=11	=11
0D	[0A	2r	1f
.	.	1d	.
.	.	.	2r
.	.	2d\	2f/
=12	=12	=12	=12
0AA	0A_	2c\	2e/
.	.	1d	2d/
.	.	.	1e
.	.	2c#i\	.
=13	=13	=13	=13
0D	0A]	1d	1d
.	.	1f	2r
.	.	.	[2a/
=14	=14	=14	=14
0r	1r	2e\	4a/]
.	.	.	8b-\L
.	.	.	8cc\J
.	.	2d\	1dd
.	1A	1e	.
.	.	.	2cc\
=15	=15	=15	=15
0G	1B-	0d	2dd\
.	.	.	1b-
.	1B-	.	.
.	.	.	4a/
.	.	.	4g/
=16	=16	=16	=16
2.F\	2.c\	1f	4a/
.	.	.	4g/
.	.	.	2.cc\
4G\	4B-\	.	.
2A\	2c\	2e\	.
.	.	.	4b-\
2D\	[2d\	[2f\	4a/
.	.	.	4g/
=17	=17	=17	=17
2F\	4d\]	4f\]	2a/
.	4c\	4e\	.
2G\	2B-\	4d\	1g
.	.	4c\	.
1D	1A	1d	.
.	.	.	2f#i/
=18	=18	=18	=18
0GG	0G	[0d	0g
=19	=19	=19	=19
2.D\	1A	0d_	0r
4E\	.	.	.
2F\	2A/	.	.
2G\	[2B-\	.	.
=20	=20	=20	=20
1D	2B-\]	0d_	0r
.	2A/	.	.
2r	2G/	.	.
[2G\	[2B-\	.	.
=21	=21	=21	=21
2G\]	2B-\]	0d]	0r
4F\	4A/	.	.
4E\	4G/	.	.
1D	2B-\	.	.
.	[2A/	.	.
=22	=22	=22	=22
4C/	2A/]	0r	0r
4D\	.	.	.
4E\	2G/	.	.
4F\	.	.	.
1D	2B-\	.	.
.	[2A/	.	.
=23	=23	=23	=23
4C/	2A/]	0r	0r
4D\	.	.	.
4E\	4G/	.	.
4F\	4A/	.	.
1D	4B-\	.	.
.	4c\	.	.
.	2B-\	.	.
=24	=24	=24	=24
2C/	2A/	0r	0r
2BB-/	1G	.	.
1AA	.	.	.
.	2F#i/	.	.
=25	=25	=25	=25
0GG	0G	1d	1.b-
.	.	4e\	.
.	.	4d\	.
.	.	[2g\	2b-\
=26	=26	=26	=26
0r	0r	2g\]	1a
.	.	2f#i\	.
.	.	1g	[1g
=27	=27	=27	=27
0r	0r	2.G/	2g/]
.	.	.	4f/
.	.	4A/	4e/
.	.	4B-\	4d/
.	.	4c\	4e/
.	.	4d\	4f/
.	.	4e-i\	4g/
=28	=28	=28	=28
0r	0r	2c\	4a/
.	.	.	4b-\
.	.	4B-\	2g/
.	.	4c\	.
.	.	4d\	4f/
.	.	4e\	4g/
.	.	4f\	4a/
.	.	4g\	4b-\
=29	=29	=29	=29
0r	0r	2e\	4cc\
.	.	.	4dd\
.	.	1d	2b-\
.	.	.	2a/
.	.	2f\	[2dd\
=30	=30	=30	=30
0r	0r	1e	2dd\]
.	.	.	2cc#i\
.	.	1d	1dd
=31	=31	=31	=31
1D	[0A	2r	2r
.	.	1f	1d
4D\	.	.	.
4E\	.	.	.
4F\	.	2f\	2d/
4G\	.	.	.
=32	=32	=32	=32
2A\	1A]	2e\	2c/
2.D\	.	2d\	2.f/
.	1A	1f	.
4C/	.	.	4e/
2D\	.	.	[2d/
=33	=33	=33	=33
1AA	[0A	1e	2d/]
.	.	.	2c#i/
[1D	.	[1d	2d/
.	.	.	[2f/
=34	=34	=34	=34
2D\]	0A]	1d]	2f/]
4C/	.	.	4e/
4BB-/	.	.	4d/
1AA	.	1c	2e/
.	.	.	2f/
=35	=35	=35	=35
1GG	0B-	0d	0g
1G	.	.	.
=36	=36	=36	=36
1F	0c	2r	1a
.	.	2f\	.
1A	.	2e\	1cc
.	.	2f\	.
=37	=37	=37	=37
0G	1d	2.g\	0b-
.	.	4f\	.
.	1B-	2d\	.
.	.	2e\	.
=38	=38	=38	=38
1F	2.c\	0f	1a
.	4A/	.	.
2r	2B-\	.	2r
[2F\	2c\	.	[2a/
=39	=39	=39	=39
2F\]	2A/	0r	2a/]
2F\	2c\	.	2a/
2G\	2B-\	.	2g/
2F\	2A/	.	2cc\
=40	=40	=40	=40
2G\	2B-\	2r	2b-\
2A\	2c\	1f	1a
2F\	2A/	.	.
2C/	[2c\	2e\	2g/
=41	=41	=41	=41
2r	4c\]	2f\	2a/
.	4A/	.	.
2G\	2B-\	2g\	2g/
2F\	2c\	2.c\	2.a/
2A\	2A/	.	.
.	.	4d\	4cc\
=42	=42	=42	=42
2G\	2B-\	2e\	2b-\
1F	2c\	1f	1a
.	2A/	.	.
2G\	[2d\	[2B-\	[2b-\
=43	=43	=43	=43
2B-\	2d\]	2B-\]	2b-\]
1F	2.c\	1f	2a/
.	.	.	2.cc\
.	4A/	.	.
2G\	2B-\	2d\	.
.	.	.	4b-\
=44	=44	=44	=44
2C/	4c\	2e-i\	4a/
.	4B-\	.	4g/
2E-i\	4A/	2c\	1g
.	4G/	.	.
1D	1A	1d	.
.	.	.	2f#i/
=45	=45	=45	=45
0GGl	0Gl	0dl	0gl
!!LO:LB:i:g=z
=46||	=46||	=46||	=46||
*>B	*>B	*>B	*>B
*clefF4	*clefGv2	*clefGv2	*clefG2
*k[b-]	*k[b-]	*k[b-]	*k[b-]
*M2/1	*M2/1	*M2/1	*M2/1
*met(C|)	*met(C|)	*met(C|)	*met(C|)
!!section: Pleni sunt celi
!!!OMD: Pleni sunt celi
0r	0r	0r	1d
.	.	.	2d/
.	.	.	4e/
.	.	.	4f/
=47	=47	=47	=47
0r	0r	1G	4g/
.	.	.	4a/
.	.	.	1b-
.	.	2G/	.
.	.	4A/	2a/
.	.	4B-\	.
=48	=48	=48	=48
0r	0r	4c\	1g
.	.	4d\	.
.	.	1e-i	.
.	.	.	2g/
.	.	2d\	4a/
.	.	.	4b-\
=49	=49	=49	=49
0r	0r	1c	4cc\
.	.	.	4dd\
.	.	.	1ee-
.	.	2c\	.
.	.	4d\	2dd\
.	.	4e\	.
=50	=50	=50	=50
0r	0r	4f\	1cc
.	.	4g\	.
.	.	1a	.
.	.	.	2f/
.	.	[2g\	[2b-\
=51	=51	=51	=51
0r	0r	2g\]	4b-\]
.	.	.	4g/
.	.	2c\	2a/
.	.	2.f\	2.dd\
.	.	4d\	4b-\
=52	=52	=52	=52
1r	0r	2e\	2cc\
.	.	2d\	2dd\
2.B-\	.	2.g\	1r
4G\	.	4e\	.
=53	=53	=53	=53
2A\	0r	2f\	0r
2G\	.	2g\	.
2.E\	.	2.c\	.
4C/	.	4A/	.
=54	=54	=54	=54
2D\	0r	2B-\	0r
2C/	.	2c\	.
2.F\	.	2.A/	.
4D\	.	4F/	.
=55	=55	=55	=55
2E\	0r	2G/	1r
2F\	.	2F/	.
1r	.	2.f\	2.a/
.	.	4d\	4f/
=56	=56	=56	=56
0r	0r	2e\	2g/
.	.	2f\	2a/
.	.	2.d\	2.f/
.	.	4B-\	4d/
=57	=57	=57	=57
1r	0r	2c\	2e/
.	.	2d\	2d/
2.F\	.	1r	1a
4D\	.	.	.
=58	=58	=58	=58
2E\	0r	0r	2g/
2D\	.	.	2.f/
2.G\	.	.	.
.	.	.	4d/
.	.	.	2e/
4E\	.	.	.
=59	=59	=59	=59
2F\	0r	1r	1d
2.G\	.	.	.
.	.	2.B-\	2.g/
4F\	.	.	.
2E\	.	.	.
.	.	4G/	4e/
=60	=60	=60	=60
2D\	0r	2A/	2f/
2E\	.	2G/	2g/
2F\	.	2.f\	2d/
[2C/	.	.	[2g/
.	.	4d\	.
=61	=61	=61	=61
2C/]	0r	2e\	4g/]
.	.	.	4a/
2D\	.	1d	2f/
1A	.	.	1e
.	.	2c#i\	.
=62	=62	=62	=62
2r	0r	0d	1d
2.D\	.	.	.
.	.	.	1r
4E\	.	.	.
2F\	.	.	.
=63	=63	=63	=63
2E\	0r	2r	0r
2D\	.	2.A/	.
1F	.	.	.
.	.	4B-\	.
.	.	2c\	.
=64	=64	=64	=64
2G\	0r	2B-\	0r
2.A\	.	2A/	.
.	.	1c	.
4B-\	.	.	.
2c\	.	.	.
=65	=65	=65	=65
2B-\	0r	2d\	0r
2.c\	.	2.e\	.
4B-\	.	4f\	.
2G\	.	2g\	.
=66	=66	=66	=66
2A\	0r	2f\	2r
2.G\	.	2.g\	2.b-\
4A\	.	4f\	4cc\
2B-\	.	2d\	2dd\
=67	=67	=67	=67
2A\	0r	2e\	2cc\
2.B-\	.	2.d\	2.dd\
4A\	.	4e\	4cc\
2F\	.	2f\	2a/
=68	=68	=68	=68
2G\	0r	2e\	2b-\
2.F\	.	2.f\	2.a/
4G\	.	4e\	4b-\
2A\	.	2c\	2cc\
=69	=69	=69	=69
2G\	0r	2d\	2b-\
2A\	.	1c	2.cc\
2F\	.	.	.
.	.	.	4b-\
2G\	.	2B-\	2g/
=70	=70	=70	=70
2F\	0r	4c\	2a/
.	.	4B-\	.
2G\	.	4A/	1g
.	.	4G/	.
1D	.	1A	.
.	.	.	2f#i/
=71	=71	=71	=71
[0GG	0r	1G	1g
.	.	1r	1r
=72	=72	=72	=72
0GG]	0r	1.g	[0b-
.	.	4f\	.
.	.	4e\	.
=73	=73	=73	=73
0r	0r	2d\	1b-]
.	.	2g\	.
.	.	2d\	1b-
.	.	2g\	.
=74	=74	=74	=74
1.D	0r	2f\	[0a
.	.	2d\	.
.	.	2f\	.
4C/	.	4e\	.
4BB-/	.	4d\	.
=75	=75	=75	=75
2AA/	0r	2c\	0a]
2D\	.	2d\	.
2AA/	.	2e\	.
2D\	.	2f\	.
=76	=76	=76	=76
2C/	0r	4e\	1r
.	.	4d\	.
2AA/	.	4c\	.
.	.	4B-\	.
2C/	.	4A/	[1g
.	.	4G/	.
4BB-/	.	[2B-\	.
4AA/	.	.	.
=77	=77	=77	=77
2GG/	0r	2B-\]	1g]
2BB-/	.	1G	.
1AA	.	.	1a
.	.	2F#i/	.
=78	=78	=78	=78
0GG	0r	2.G/	2.b-\
.	.	4A/	4cc\
.	.	4B-\	4dd\
.	.	4c\	4ee-i\
.	.	2d\	2dd\
=79	=79	=79	=79
0r	0r	4e-i\	2cc\
.	.	4d\	.
.	.	4c\	1b-
.	.	4B-\	.
.	.	1c	.
.	.	.	2a/
=80	=80	=80	=80
1.G	0r	2.B-\	0b-
.	.	4c\	.
.	.	4d\	.
.	.	4e-i\	.
4F\	.	[2d\	.
4E\	.	.	.
=81	=81	=81	=81
2D\	0r	2d\]	0r
1G	.	4c\	.
.	.	4B-\	.
.	.	1A	.
2F#i\	.	.	.
=82	=82	=82	=82
1G	0r	0G	1r
2r	.	.	[1b-
[2G\	.	.	.
=83	=83	=83	=83
2G\]	0r	0r	2b-\]
2G\	.	.	2b-\
2F\	.	.	2a/
[2G\	.	.	2g/
=84	=84	=84	=84
2G\]	0r	2.g\	2.b-\
2G\	.	.	.
.	.	4e\	4cc\
2D\	.	2f\	2a/
[2E\	.	4e\	2g/
.	.	4d\	.
=85	=85	=85	=85
4E\]	0r	4c\	1b-
4F\	.	4B-\	.
2D\	.	1B-	.
1C	.	.	1cc
.	.	2A/	.
=86	=86	=86	=86
0BB-	0r	0B-	0dd
=87	=87	=87	=87
1F	0r	2.c\	2.cc\
.	.	4d\	4b-\
2C/	.	2e\	4cc\
.	.	.	4b-\
[2D\	.	[2f\	4a/
.	.	.	4g/
=88	=88	=88	=88
2D\]	0r	2f\]	2f/
4C/	.	4e\	1b-
4BB-/	.	4d\	.
1F	.	1c	.
.	.	.	2a/
=89	=89	=89	=89
2.BB-/	0r	2B-\	1b-
.	.	1d	.
4C/	.	.	.
2D\	.	.	2b-\
2C/	.	2e-i\	[2cc\
=90	=90	=90	=90
1F	0r	2c\	2cc\]
.	.	1f	2a/
2BB-/	.	.	1b-
[2E-\	.	2B-\	.
=91	=91	=91	=91
2E-\]	0r	1c	2g/
2C/	.	.	1a
1D	.	2A/	.
.	.	[2d\	2f/
=92	=92	=92	=92
2GG/	0r	2d\]	2g/
2.C/	.	2G/	1e
.	.	2c\	.
4AA/	.	.	.
2BB-/	.	[2d\	[2d/
=93	=93	=93	=93
1GG	0r	4d\]	2d/]
.	.	4c\	.
.	.	2B-\	1g
1D	.	1A	.
.	.	.	2f#i/
=94	=94	=94	=94
0GGl	0r	0Gl	0gl
!!LO:LB:i:g=z
=95||	=95||	=95||	=95||
*>C	*>C	*>C	*>C
*clefF4	*clefGv2	*clefGv2	*clefG2
*k[b-]	*k[b-]	*k[b-]	*k[b-]
*M2/1	*M2/1	*M2/1	*M2/1
*met(C|)	*met(C|)	*met(C|)	*met(C|)
!!section: Osanna
!!!OMD: Osanna
[0G	[0B-	[0d	[0g
=96	=96	=96	=96
1G]	1B-]	1d]	1g]
1C	1c	1g	1e
=97	=97	=97	=97
0C	0c	[0g	0e
=98	=98	=98	=98
1C	0c	1g]	1e
[1F	.	1f	[1a
=99	=99	=99	=99
1F]	[0d	0f	1a]
1BB-	.	.	1f
=100	=100	=100	=100
1BB-	0d]	1d	0f
[1B-	.	1B-	.
=101	=101	=101	=101
1B-]	[0d	1f	1f
1G	.	[1g	[1b-
=102	=102	=102	=102
1.G	1d]	2g\]	1b-]
.	.	2G/	.
.	1e	[1G	1g
2C/	.	.	.
=103	=103	=103	=103
1C	[0e	1G]	2.g/
.	.	.	4a/
1r	.	[1g	2b-\
.	.	.	[2g/
=104	=104	=104	=104
1C	1e]	1g]	2g/]
.	.	.	2.cc\
1G	1d	1g	.
.	.	.	4bni\
.	.	.	2bni\
=105	=105	=105	=105
1.A	1c	1.e	0cc
.	2r	.	.
2F\	[2c\	2f\	.
=106	=106	=106	=106
0F	2c\]	2f\	2r
.	2A/	4e\	1cc
.	.	4d\	.
.	1A	1c	.
.	.	.	2a/
=107	=107	=107	=107
2r	0d	1r	1.a
1D	.	.	.
.	.	[1f	.
4C/	.	.	[2b-\
4BB-/	.	.	.
=108	=108	=108	=108
0F	[0c	1f]	2b-\]
.	.	.	4a/
.	.	.	4g/
.	.	1f	1a
=109	=109	=109	=109
1F	1c]	0f	2a/
.	.	.	2.cc\
1F	1A	.	.
.	.	.	4a/
.	.	.	2cc\
=110	=110	=110	=110
2G\	2.d\	2B-\	2b-\
2F\	.	2f\	2a/
.	4c\	.	.
2G\	2B-\	2d\	1dd
[2D\	[2A/	[2f\	.
=111	=111	=111	=111
4D\]	2A/]	4f\]	2dd\
4BB-/	.	4d\	.
2C/	1G	2e\	1cc
1AA	.	1c	.
.	2F/	.	4b-\
.	.	.	4a/
=112	=112	=112	=112
0GG	0G	1r	0b-
.	.	2.d\	.
.	.	4e\	.
=113	=113	=113	=113
2.D\	[0A	2f\	0r
.	.	2.d\	.
4E\	.	.	.
2F\	.	.	.
.	.	4e\	.
[2D\	.	4f\	.
.	.	4g\	.
=114	=114	=114	=114
2D\]	0A]	2.e\	0r
2C/	.	.	.
.	.	4d\	.
2D\	.	2f\	.
2AA/	.	4e\	.
.	.	4d\	.
=115	=115	=115	=115
0AA	2.A/	1c	0r
.	4B-\	.	.
.	2c\	2r	.
.	[2A/	2c\	.
=116	=116	=116	=116
1BB-	2A/]	1d	0r
.	2G/	.	.
[1AA	2A/	[1c	.
.	2E/	.	.
=117	=117	=117	=117
1AA]	0E	0c]	2.a/
.	.	.	4b-\
1AA	.	.	2cc\
.	.	.	[2a/
=118	=118	=118	=118
1r	1r	1B-	2a/]
.	.	.	2g/
[1C	[1E	[1c	2a/
.	.	.	2e/
=119	=119	=119	=119
1C]	1E]	0c]	0g
1C	1E	.	.
=120	=120	=120	=120
0D	[0A	1A	0f
.	.	1d	.
=121	=121	=121	=121
0AA	0A]	0c	1e
.	.	.	2e/
.	.	.	[2a/
=122	=122	=122	=122
1r	1B-	1d	2a/]
.	.	.	2g/
1F	1A	2.f\	1a
.	.	4d\	.
=123	=123	=123	=123
2G\	1G	2d\	2b-\
2C/	.	2e\	2cc\
2F\	1A	2c\	2a/
2D\	.	2d\	[2dd\
=124	=124	=124	=124
1A	1r	1e	2dd\]
.	.	.	2cc#i\
1D	1A	[1d	1dd
=125	=125	=125	=125
2r	2B-\	1d]	1r
2D\	2A/	.	.
1G	1B-	1r	1dd
=126	=126	=126	=126
2A\	1A	0r	2cc\
1F	.	.	1a
.	2B-\	.	.
2E\	2c\	.	2g/
=127	=127	=127	=127
2F\	2A/	1r	2.a/
2D\	1d	.	.
.	.	.	4b-\
1E-i	.	1G	4cc\
.	.	.	4b-\
.	2c\	.	4a/
.	.	.	4g/
=128	=128	=128	=128
0D	0d	1A	2f/
.	.	.	1dd
.	.	1f	.
.	.	.	2dd\
=129	=129	=129	=129
0r	0r	2.e\	2.cc\
.	.	4d\	4b-\
.	.	2c\	2a/
.	.	2B-\	2g/
=130	=130	=130	=130
0D	0d	0A	0f
=131	=131	=131	=131
1E-i	1B-	1G	0g
1E-i	1c	1G	.
=132	=132	=132	=132
2.D\	1d	1A	2.f/
4C/	.	.	4g/
2BB-/	2d\	2G/	4a/
.	.	.	4b-\
2AA/	[2c\	[2A/	4cc\
.	.	.	4b-\
=133	=133	=133	=133
2F\	4c\]	2A/]	4a/
.	4B-\	.	4g/
2G\	4A/	2.d\	1g
.	4G/	.	.
1D	1A	.	.
.	.	4c\	.
.	.	4B-\	2f#i/
.	.	4A/	.
=134	=134	=134	=134
0GGl	0Gl	0B-l	0gl
!!LO:LB:i:g=z
!!LO:TX:rj:i:Y=40:t=fine
=135||	=135||	=135||	=135||
*>D	*>D	*>D	*>D
*clefF4	*clefGv2	*clefGv2	*clefG2
*k[b-]	*k[b-]	*k[b-]	*k[b-]
*M2/1	*M2/1	*M2/1	*M2/1
*met(C|)	*met(C|)	*met(C|)	*met(C|)
!!section: Benedictus
!!!OMD: Benedictus
0D	1A	0r	0r
.	4B-\	.	.
.	4A/	.	.
.	4B-\	.	.
.	4c\	.	.
=136	=136	=136	=136
1D	1d	0r	0r
4E\	1c	.	.
4D\	.	.	.
4E\	.	.	.
4F\	.	.	.
=137	=137	=137	=137
1G	1B-	0r	0r
1F	2r	.	.
.	2A/	.	.
=138	=138	=138	=138
1E	4B-\	0r	0r
.	4A/	.	.
.	4B-\	.	.
.	4c\	.	.
2r	1d	.	.
2D\	.	.	.
=139	=139	=139	=139
4E\	2c\	0r	0r
4D\	.	.	.
4E\	2A/	.	.
4F\	.	.	.
1G	1B-	.	.
=140	=140	=140	=140
2F\	1A	0r	0r
2D\	.	.	.
1E	2r	.	.
.	2G/	.	.
=141	=141	=141	=141
1D	4A/	0r	0r
.	4G/	.	.
.	4A/	.	.
.	4B-\	.	.
2r	1c	.	.
2C/	.	.	.
=142	=142	=142	=142
4D\	1B-	0r	0r
4C/	.	.	.
4D\	.	.	.
4E\	.	.	.
1F	2A/	.	.
.	[2c\	.	.
=143	=143	=143	=143
1E	4c\]	0r	0r
.	4B-\	.	.
.	2G/	.	.
2D\	1F	.	.
[2F\	.	.	.
=144	=144	=144	=144
4F\]	1c	0r	0r
4E\	.	.	.
2C/	.	.	.
1BB-	1d	.	.
=145	=145	=145	=145
0F	2c\	0r	0r
.	1A	.	.
.	2c\	.	.
=146	=146	=146	=146
1G	1B-	0r	0r
2F\	1A	.	.
[2D\	.	.	.
=147	=147	=147	=147
2D\]	1d	0r	0r
2F\	.	.	.
2E\	2c\	.	.
[2D\	[2B-\	.	.
=148	=148	=148	=148
4D\]	4B-\]	0r	0r
4AA/	4A/	.	.
2C/	1A	.	.
1BB-	.	.	.
.	2G/	.	.
=149	=149	=149	=149
2AA/	1A	0r	0r
2D\	.	.	.
2C/	2r	.	.
2AA/	2A/	.	.
=150	=150	=150	=150
2r	2B-\	0r	0r
2AA/	2c\	.	.
2D\	1A	.	.
2C/	.	.	.
=151	=151	=151	=151
2AA/	2r	0r	0r
2C/	2A/	.	.
2BB-/	2B-\	.	.
2AA/	2c\	.	.
=152	=152	=152	=152
2r	2A/	0r	0r
2AA/	2c\	.	.
2BB-/	2B-\	.	.
2C/	[2A/	.	.
=153	=153	=153	=153
1AA	4A/]	0r	0r
.	4G/	.	.
.	2E/	.	.
2r	2F/	.	.
2D\	2D/	.	.
=154	=154	=154	=154
2E\	2r	0r	0r
2F\	2A/	.	.
2D\	2B-\	.	.
2E\	2c\	.	.
=155	=155	=155	=155
2F\	2A/	0r	0r
2G\	1d	.	.
1E	.	.	.
.	2c#i\	.	.
=156	=156	=156	=156
0Dl	0dl	0r	0r
!!LO:LB:i:g=z
=157||	=157||	=157||	=157||
*>E	*>E	*>E	*>E
*clefF4	*clefGv2	*clefGv2	*clefG2
*k[b-]	*k[b-]	*k[b-]	*k[b-]
*M2/1	*M2/1	*M2/1	*M2/1
*met(C|)	*met(C|)	*met(C|)	*met(C|)
!!section: In nomine domini
!!!OMD: In nomine domini
0r	0r	0d	1r
.	.	.	1a
=158	=158	=158	=158
0r	0r	1d	4b-\
.	.	.	4a/
.	.	.	4b-\
.	.	.	4cc\
.	.	1d	1dd
=159	=159	=159	=159
0r	0r	4e\	1cc
.	.	4d\	.
.	.	4e\	.
.	.	4f\	.
.	.	1g	1b-
=160	=160	=160	=160
0r	0r	1f	2r
.	.	.	2a/
.	.	1e	4b-\
.	.	.	4a/
.	.	.	4b-\
.	.	.	4cc\
=161	=161	=161	=161
0r	0r	2r	1dd
.	.	2d\	.
.	.	4e\	2cc\
.	.	4d\	.
.	.	4e\	2a/
.	.	4f\	.
=162	=162	=162	=162
0r	0r	1g	2.b-\
.	.	.	4g/
.	.	2f\	2a/
.	.	2d\	[2dd\
=163	=163	=163	=163
0r	0r	1e	2dd\]
.	.	.	2cc\
.	.	1d	2dd\
.	.	.	[2a/
=164	=164	=164	=164
0r	0r	2r	2a/]
.	.	2d\	2b-\
.	.	2e\	2cc\
.	.	[2f\	[2a/
=165	=165	=165	=165
0r	0r	4f\]	2a/]
.	.	4e\	.
.	.	1d	4g/
.	.	.	4f/
.	.	.	1e
.	.	2c#i\	.
=166	=166	=166	=166
0r	0r	0d	2r
.	.	.	2.d/
.	.	.	4e/
.	.	.	4f/
.	.	.	4g/
=167	=167	=167	=167
0r	0r	2r	2a/
.	.	2.G/	2.b-\
.	.	4A/	4a/
.	.	4B-\	[2dd\
.	.	4c\	.
=168	=168	=168	=168
0r	0r	2d\	2dd\]
.	.	2.e\	1cc
.	.	4d\	.
.	.	[2g\	[2b-\
=169	=169	=169	=169
0r	0r	2g\]	4b-\]
.	.	.	4a/
.	.	1f	4g/
.	.	.	4f/
.	.	.	1g
.	.	2e\	.
=170	=170	=170	=170
0r	0r	0f	1f
.	.	.	2r
.	.	.	[2f/
=171	=171	=171	=171
0r	0r	2r	4f/]
.	.	.	4e/
.	.	2.d\	4f/
.	.	.	4d/
.	.	.	2f/
.	.	4c\	.
.	.	4d\	2d/
.	.	4B-\	.
=172	=172	=172	=172
0r	0r	2d\	4f/
.	.	.	4e/
.	.	2A/	4f/
.	.	.	4d/
.	.	4d\	2f/
.	.	4c\	.
.	.	4d\	2d/
.	.	4B-\	.
=173	=173	=173	=173
0r	0r	4d\	4f/
.	.	4e\	4g/
.	.	4f\	4a/
.	.	8e\L	8g/L
.	.	8f\J	8a/J
.	.	2g\	2b-\
.	.	[2d\	[2a/
=174	=174	=174	=174
0r	0r	4d\]	2a/]
.	.	4c\	.
.	.	2B-\	1g
.	.	1A	.
.	.	.	2f#i/
=175	=175	=175	=175
0r	0r	0Gl	0gl
!!LO:TX:i:Y=40:rj:t=Osanna ut supra
==	==	==	==
*-	*-	*-	*-
!!!RDF**kern: l=long note in original notation
!!!RDF**kern: i=editorial accidental
!!!ENC:	Chris Gage 06-10-2013
!!!END:	2013/08/05/
!!!EED:	Jesse Rodin
!!!EEV:	2013/08/05/
!!!ONB:	Translated from MusicXML and edited on 2013/08/05/ by Craig Sapp
!!muse2ps: T^@{OPR}^u^@{ONM}{. }@{OTL}^C^@{COM}^i2I150v85,85,85,150Q16
